icon/lg/stackshare.svg

<?xml version="1.0" encoding="UTF-8" standalone="no"?>
<svg viewBox="0 0 256 228" version="1.1" xmlns="http://www.w3.org/2000/svg" xmlns:xlink="http://www.w3.org/1999/xlink" preserveAspectRatio="xMidYMid" height="1em" width="1em">
  <g>
    <path d="M231.347179,0 C244.96042,0 255.994974,10.8933637 256,24.3360823 C255.994974,24.3360823 255.994974,202.757952 255.994974,202.757952 C255.994974,216.197008 244.96042,227.094034 231.347179,227.094034 L24.6515053,227.094034 C11.0382643,227.094034 1.79938042e-15,216.197008 1.79938042e-15,202.757952 L1.79938042e-15,24.3360823 C1.79938042e-15,10.8933637 11.0382643,0 24.6515053,0 L231.347179,0 Z" fill="#0090F9"/>
    <path d="M195.958986,136.498536 C186.453848,136.498536 178.256354,142.194293 174.589825,150.351496 L144.821712,150.351496 L133.122519,113.389514 L144.979215,76.6399782 L174.54587,76.6399782 C178.186759,84.852124 186.413557,90.5991608 195.958986,90.5991608 C208.874251,90.5991608 219.379351,80.0940609 219.379351,67.1787951 C219.379351,54.2635293 208.874251,43.7584293 195.958986,43.7584293 C186.864089,43.7584293 178.970613,48.9743506 175.091638,56.567472 L137.778021,56.567472 C133.47049,56.567472 129.646458,59.3109587 128.265557,63.3913916 L114.73493,103.459484 L81.575004,103.459484 C77.992721,95.1044861 69.6926664,89.2402375 60.0410143,89.2402375 C47.1294113,89.2402375 36.6206485,99.7453375 36.6206485,112.660604 C36.6206485,125.572207 47.1294113,136.077306 60.0410143,136.077306 C69.0333505,136.077306 76.8499067,130.98226 80.7728363,123.53199 L114.577427,123.53199 L128.111717,163.600082 C129.488955,167.680515 133.312987,170.424002 137.620517,170.424002 L175.040357,170.424002 C178.897355,178.075729 186.823798,183.335605 195.958986,183.335605 C208.874251,183.335605 219.379351,172.830505 219.379351,159.915239 C219.379351,147.003636 208.874251,136.498536 195.958986,136.498536 L195.958986,136.498536 L195.958986,136.498536 Z M195.958986,56.3037457 C201.955097,56.3037457 206.834035,61.1826833 206.834035,67.1787951 C206.834035,73.1749069 201.955097,78.0538445 195.958986,78.0538445 C189.962874,78.0538445 185.087599,73.1749069 185.087599,67.1787951 C185.087599,61.1826833 189.962874,56.3037457 195.958986,56.3037457 L195.958986,56.3037457 L195.958986,56.3037457 Z M60.0410143,123.53199 C54.0449025,123.53199 49.1696277,118.653052 49.1696277,112.660604 C49.1696277,106.664492 54.0449025,101.785554 60.0410143,101.785554 C66.0371261,101.785554 70.9160637,106.664492 70.9160637,112.660604 C70.9160637,118.653052 66.0371261,123.53199 60.0410143,123.53199 L60.0410143,123.53199 L60.0410143,123.53199 Z M195.958986,170.790288 C189.962874,170.790288 185.087599,165.911351 185.087599,159.915239 C185.087599,153.919127 189.962874,149.043852 195.958986,149.043852 C201.955097,149.043852 206.834035,153.919127 206.834035,159.915239 C206.834035,165.911351 201.955097,170.790288 195.958986,170.790288 L195.958986,170.790288 L195.958986,170.790288 Z" fill="#FFFFFF"/>
  </g>
</svg>

<svg width="256" height="228" xmlns="http://www.w3.org/2000/svg" preserveAspectRatio="xMidYMid"><path d="M231.347 0C244.96 0 255.995 10.893 256 24.336c-.005 0-.005 178.422-.005 178.422 0 13.439-11.035 24.336-24.648 24.336H24.652C11.038 227.094 0 216.197 0 202.758V24.336C0 10.893 11.038 0 24.652 0h206.695Z" fill="#0090F9"/><path d="M195.959 136.499c-9.505 0-17.703 5.695-21.37 13.852h-29.767l-11.7-36.961 11.857-36.75h29.567c3.64 8.212 11.868 13.96 21.413 13.96 12.915 0 23.42-10.506 23.42-23.421s-10.505-23.42-23.42-23.42c-9.095 0-16.988 5.215-20.867 12.808h-37.314a10.04 10.04 0 0 0-9.512 6.824l-13.531 40.068h-33.16C77.993 95.104 69.693 89.24 60.041 89.24c-12.912 0-23.42 10.505-23.42 23.42 0 12.912 10.508 23.417 23.42 23.417 8.992 0 16.809-5.095 20.732-12.545h33.804l13.535 40.068a10.031 10.031 0 0 0 9.509 6.824h37.42c3.856 7.652 11.783 12.912 20.918 12.912 12.915 0 23.42-10.505 23.42-23.42 0-12.912-10.505-23.417-23.42-23.417Zm0-80.195c5.996 0 10.875 4.879 10.875 10.875s-4.879 10.875-10.875 10.875-10.871-4.88-10.871-10.875c0-5.996 4.875-10.875 10.871-10.875ZM60.041 123.532c-5.996 0-10.871-4.879-10.871-10.871 0-5.997 4.875-10.875 10.871-10.875s10.875 4.878 10.875 10.875c0 5.992-4.879 10.871-10.875 10.871Zm135.918 47.258c-5.996 0-10.871-4.879-10.871-10.875s4.875-10.871 10.871-10.871 10.875 4.875 10.875 10.871-4.879 10.875-10.875 10.875Z" fill="#FFF"/></svg>
